X:1
T:Title
%%score ( 1 2 ) ( 3 4 )
L:1/8
Q:1/4=110
M:4/4
K:Eb
V:1 treble nm="Grand Piano, Soprano"
V:2 treble 
V:3 bass nm="Choir Pad, Bass"
V:4 bass 
V:1
 [EG]2 [EG]2 [DF]2 [CE]2 | [DB]4 [EB]4 | [Ec]4 [Ad]2 [Ad]2 | [Ge]4 [GB]4 | [Ac]3 [Ec] [Fc]2 [Fc]2 | %5
w: By~William~Howard~Doane * * *|||||
 c2 B2 [DA]2 [EG]2 | [DF]2 [FB]2 [Fd]3 [Ec] | [DB]6 z2 | [EB]2 [EB]2 [=Ec]2 [EG]2 | [GB]4 [FA]4 | %10
w: |||||
 [FA]3 [Dc] [EB]2 [FA]2 | [FA]4 [EG]4 | [Ge]4 [EB]2 [EG]2 | [EA]4 [Ec]4 | [EB]2 E2 [EG]3 [DF] | %15
w: |||||
 E8 |] %16
w: |
V:2
 x8 | x8 | x8 | x8 | x8 | E4 z4 | x8 | x8 | x8 | x8 | x8 | x8 | x8 | x8 | x8 | x8 |] %16
V:3
 [E,B,]2 [E,B,]2 [B,,A,]2 [C,G,]2 | A,2 F,2 [E,G,]4 | A,2 [G,C]2 [F,C]2 [F,B,]2 | [E,B,]4 [E,E]4 | %4
 [A,E]3 [A,C] [A,D]2 [A,D]2 | E2 B,2 [F,B,]2 [E,B,]2 | [F,B,]2 [F,D]2 [F,B,]3 [F,=A,] | %7
 [B,,B,]6 z2 | [E,G,]2 [_D,G,]2 [C,G,]2 [C,C]2 | [F,C]4 C2- [E,C]2 | %10
 [D,B,]3 [B,,B,] [C,B,]2 [D,B,]2 | [E,B,]4 [E,B,]4 | [E,B,]4 [E,G,]2 [_D,B,]2 | [C,A,]4 [A,,A,]4 | %14
 [B,,G,]2 [C,A,]2 [B,,B,]3 [B,,A,] | [E,G,]8 |] %16
V:4
 x8 | B,,4 z4 | x8 | x8 | x8 | G,4 z4 | x8 | x8 | x8 | z4 F,2 z2 | x8 | x8 | x8 | x8 | x8 | x8 |] %16

